src/raw/car/icon_32.svg

<svg width="32" height="32" viewBox="0 0 32 32" fill="none" xmlns="http://www.w3.org/2000/svg">
<path d="M30.5 11.5L29 12L28 13.9999L25.6414 6.13795C25.2607 4.869 24.0927 4 22.7679 4H9.23209C7.90727 4 6.7393 4.869 6.35861 6.13795L4 13.9999L3 12L1.5 11.5" stroke="#71717A" stroke-width="1.5" stroke-linecap="round" stroke-linejoin="round"/>
<path d="M2 25.9574V28C2 28.5305 2.21071 29.0392 2.58579 29.4142C2.96086 29.7893 3.46957 30 4 30C4.53043 30 5.03914 29.7893 5.41421 29.4142C5.78929 29.0392 6 28.5305 6 28V26.0617" stroke="#71717A" stroke-width="1.5" stroke-linecap="round" stroke-linejoin="round"/>
<path d="M30 25.9574V28C30 28.5305 29.7893 29.0392 29.4142 29.4142C29.0391 29.7893 28.5304 30 28 30C27.4696 30 26.9609 29.7893 26.5858 29.4142C26.2107 29.0392 26 28.5305 26 28V26.0617" stroke="#71717A" stroke-width="1.5" stroke-linecap="round" stroke-linejoin="round"/>
<path d="M3.66667 14H16H28.3333C29.0406 14 29.7189 14.3065 30.219 14.8521C30.719 15.3976 31 16.1376 31 16.9091V24.5455C31 24.9312 30.8595 25.3012 30.6095 25.574C30.3594 25.8468 30.0203 26 29.6667 26H2.33333C1.97971 26 1.64057 25.8468 1.39052 25.574C1.14048 25.3012 1 24.9312 1 24.5455V16.9091C1 16.1376 1.28095 15.3976 1.78105 14.8521C2.28115 14.3065 2.95942 14 3.66667 14Z" stroke="#71717A" stroke-width="1.5" stroke-linecap="round" stroke-linejoin="round"/>
<path d="M1 19H7.5L9 22" stroke="#71717A" stroke-width="1.5" stroke-linecap="round" stroke-linejoin="round"/>
<path d="M19 22H13" stroke="#71717A" stroke-width="1.5" stroke-linecap="round" stroke-linejoin="round"/>
<path d="M31 19H24.5L23 22" stroke="#71717A" stroke-width="1.5" stroke-linecap="round" stroke-linejoin="round"/>
</svg>

<svg xmlns="http://www.w3.org/2000/svg" width="32" height="32" fill="none" viewBox="0 0 32 32">
  <path stroke="#3F3F46" stroke-linecap="round" stroke-linejoin="round" stroke-width="2"
    d="M30.5 11.5 29 12l-1 2-2.144-7.15A4 4 0 0 0 22.024 4H9.977a4 4 0 0 0-3.832 2.85L4 14l-1-2-1.5-.5M2 25.957V28a2 2 0 0 0 4 0V26.06M30 25.957V28a2 2 0 0 1-4 0V26.06" />
  <path stroke="#3F3F46" stroke-linecap="round" stroke-linejoin="round" stroke-width="2"
    d="M3.667 14h24.667c.707 0 1.385.306 1.885.852S31 16.138 31 16.91v7.637c0 .385-.14.755-.39 1.028a1.28 1.28 0 0 1-.943.426H2.334a1.28 1.28 0 0 1-.943-.426 1.524 1.524 0 0 1-.39-1.029V16.91c0-.771.28-1.511.78-2.057A2.559 2.559 0 0 1 3.668 14Z" />
  <path stroke="#3F3F46" stroke-linecap="round" stroke-linejoin="round" stroke-width="2"
    d="M1 19h6.5L9 22M19 22h-6M31 19h-6.5L23 22" />
</svg>
